packages/elements/bolt-icon/src/svgs/life-sciences.svg

<svg enable-background="new 0 0 32 32" viewBox="0 0 32 32" xmlns="http://www.w3.org/2000/svg"><g clip-rule="evenodd" fill="#151619" fill-rule="evenodd" transform="translate(-3)"><path d="m10.2 24.8h10.9v-2h-9.3c1.2-1.2 2.5-2.3 3.8-3.3l-1.2-1.6c-4.1 3.1-8.4 7.2-8.4 14.1h2c0-.5 0-1.1.1-1.6v.1h16v-2h-15.6c.4-1.3 1-2.6 1.7-3.7"/><path d="m27.7 7.3h-10.6v2h8.9c-1.2 1.2-2.4 2.2-3.8 3.2l1.2 1.6c4.3-3 8.6-7.1 8.6-14.1h-2c0 .5 0 1.1-.1 1.6h-15.8v2h15.4c-.4 1.3-1 2.6-1.8 3.7"/><path d="m19.6 15.2c-6-4-11.6-7.7-11.6-15.2h-2c0 8.5 6.3 12.8 12.4 16.8s11.6 7.7 11.6 15.2h2c0-8.5-6.3-12.8-12.4-16.8"/></g></svg>

<?xml version="1.0" encoding="utf-8"?>
<!-- Generator: Adobe Illustrator 25.2.0, SVG Export Plug-In . SVG Version: 6.00 Build 0)  -->
<svg version="1.1" id="Layer_1" xmlns="http://www.w3.org/2000/svg" xmlns:xlink="http://www.w3.org/1999/xlink" x="0px" y="0px"
	 viewBox="0 0 32 32" style="enable-background:new 0 0 32 32;" xml:space="preserve">
<style type="text/css">
	.st0{fill-rule:evenodd;clip-rule:evenodd;fill:#151619;}
</style>
<g transform="translate(-3)">
	<path class="st0" d="M10.2,24.8h10.9v-2h-9.3c1.2-1.2,2.5-2.3,3.8-3.3l-1.2-1.6C10.3,21,6,25.1,6,32h2c0-0.5,0-1.1,0.1-1.6v0.1h16
		v-2H8.5C8.9,27.2,9.5,25.9,10.2,24.8"/>
	<path class="st0" d="M27.7,7.3H17.1v2H26c-1.2,1.2-2.4,2.2-3.8,3.2l1.2,1.6C27.7,11.1,32,7,32,0h-2c0,0.5,0,1.1-0.1,1.6H14.1v2
		h15.4C29.1,4.9,28.5,6.2,27.7,7.3"/>
	<path class="st0" d="M19.6,15.2C13.6,11.2,8,7.5,8,0H6c0,8.5,6.3,12.8,12.4,16.8S30,24.5,30,32h2C32,23.5,25.7,19.2,19.6,15.2"/>
</g>
</svg>
